src/assets/icons/fa/list-alt.svg

<?xml version="1.0" encoding="utf-8"?>
<svg width="1792" height="1792" viewBox="0 0 1792 1792" xmlns="http://www.w3.org/2000/svg"><path d="M384 1184v64q0 13-9.5 22.5t-22.5 9.5h-64q-13 0-22.5-9.5t-9.5-22.5v-64q0-13 9.5-22.5t22.5-9.5h64q13 0 22.5 9.5t9.5 22.5zm0-256v64q0 13-9.5 22.5t-22.5 9.5h-64q-13 0-22.5-9.5t-9.5-22.5v-64q0-13 9.5-22.5t22.5-9.5h64q13 0 22.5 9.5t9.5 22.5zm0-256v64q0 13-9.5 22.5t-22.5 9.5h-64q-13 0-22.5-9.5t-9.5-22.5v-64q0-13 9.5-22.5t22.5-9.5h64q13 0 22.5 9.5t9.5 22.5zm1152 512v64q0 13-9.5 22.5t-22.5 9.5h-960q-13 0-22.5-9.5t-9.5-22.5v-64q0-13 9.5-22.5t22.5-9.5h960q13 0 22.5 9.5t9.5 22.5zm0-256v64q0 13-9.5 22.5t-22.5 9.5h-960q-13 0-22.5-9.5t-9.5-22.5v-64q0-13 9.5-22.5t22.5-9.5h960q13 0 22.5 9.5t9.5 22.5zm0-256v64q0 13-9.5 22.5t-22.5 9.5h-960q-13 0-22.5-9.5t-9.5-22.5v-64q0-13 9.5-22.5t22.5-9.5h960q13 0 22.5 9.5t9.5 22.5zm128 704v-832q0-13-9.5-22.5t-22.5-9.5h-1472q-13 0-22.5 9.5t-9.5 22.5v832q0 13 9.5 22.5t22.5 9.5h1472q13 0 22.5-9.5t9.5-22.5zm128-1088v1088q0 66-47 113t-113 47h-1472q-66 0-113-47t-47-113v-1088q0-66 47-113t113-47h1472q66 0 113 47t47 113z"/></svg>

<svg width="1792" height="1792" xmlns="http://www.w3.org/2000/svg"><path d="M384 1184v64q0 13-9.5 22.5T352 1280h-64q-13 0-22.5-9.5T256 1248v-64q0-13 9.5-22.5t22.5-9.5h64q13 0 22.5 9.5t9.5 22.5zm0-256v64q0 13-9.5 22.5T352 1024h-64q-13 0-22.5-9.5T256 992v-64q0-13 9.5-22.5T288 896h64q13 0 22.5 9.5T384 928zm0-256v64q0 13-9.5 22.5T352 768h-64q-13 0-22.5-9.5T256 736v-64q0-13 9.5-22.5T288 640h64q13 0 22.5 9.5T384 672zm1152 512v64q0 13-9.5 22.5t-22.5 9.5H544q-13 0-22.5-9.5T512 1248v-64q0-13 9.5-22.5t22.5-9.5h960q13 0 22.5 9.5t9.5 22.5zm0-256v64q0 13-9.5 22.5t-22.5 9.5H544q-13 0-22.5-9.5T512 992v-64q0-13 9.5-22.5T544 896h960q13 0 22.5 9.5t9.5 22.5zm0-256v64q0 13-9.5 22.5T1504 768H544q-13 0-22.5-9.5T512 736v-64q0-13 9.5-22.5T544 640h960q13 0 22.5 9.5t9.5 22.5zm128 704V544q0-13-9.5-22.5T1632 512H160q-13 0-22.5 9.5T128 544v832q0 13 9.5 22.5t22.5 9.5h1472q13 0 22.5-9.5t9.5-22.5zm128-1088v1088q0 66-47 113t-113 47H160q-66 0-113-47T0 1376V288q0-66 47-113t113-47h1472q66 0 113 47t47 113z"/></svg>
